communes/3831.svg

<?xml version="1.0" encoding="UTF-8"?>
<!DOCTYPE svg  PUBLIC '-//W3C//DTD SVG 1.1//EN'  'http://www.w3.org/Graphics/SVG/1.1/DTD/svg11.dtd'>
<svg width="438" height="480" viewBox="21 15 438 480" xmlns="http://www.w3.org/2000/svg">
<metadata>
<rdf:RDF xmlns:dc="http://purl.org/dc/elements/1.1/" xmlns:rdf="http://www.w3.org/1999/02/22-rdf-syntax-ns#">
<rdf:Description dc:date="2006-10-26" dc:format="image/svg+xml" dc:language="de" dc:title="Wappen Cama (CH-GR)">
<dc:creator rdf:resource="http://de.wikipedia.org/wiki/Benutzer:Bernina"/>
</rdf:Description>
</rdf:RDF>
</metadata>
<title>Wappen Cama (CH-GR)</title>
<defs>
<clipPath id="a">
<path d="m360 4140a3240 3240 0 0 0 6480 0v-3870h-6480v3870z"/>
</clipPath>
<style type="text/css"><![CDATA[
  .Rand2 { stroke: #202020; stroke-width:30; }
  .Rand6 { stroke: #202020; stroke-width:90; }
  .Rot { fill: #ff0000; }
  .Gold { fill: #ffef00; }
  ]]></style>
</defs>
<g transform="scale(.066667)" fill="none" fill-rule="evenodd" stroke-miterlimit="10" stroke-width="10">
<g clip-path="url(#a)">
<path class="Gold" d="m-225-225v7650h7650v-7650h-7650z"/>
<path class="Rot Rand2" d="m630 3870a360 360 0 0 0 580.1 284.88 360 360 0 0 0-40.1 165.12 360 360 0 0 0 720 0h1260v1350a360 360 0 0 0-360 360 360 360 0 0 0 525.12 319.9 360 360 0 0 0-75.12 220.1 360 360 0 0 0 720 0 360 360 0 0 0-75.12-220.1 360 360 0 0 0 525.12-319.9 360 360 0 0 0-360-360v-1350h1260a360 360 0 0 0 720 0 360 360 0 0 0-40.1-165.12 360 360 0 0 0 580.1-284.88 360 360 0 0 0-580.1-284.88 360 360 0 0 0 40.1-165.12 360 360 0 0 0-720 0h-1260v-1350a360 360 0 0 0 360-360 360 360 0 0 0-525.12-319.9 360 360 0 0 0 75.12-220.1 360 360 0 0 0-720 0 360 360 0 0 0 75.12 220.1 360 360 0 0 0-525.12 319.9 360 360 0 0 0 360 360v1350h-1260a360 360 0 0 0-720 0 360 360 0 0 0 40.1 165.12 360 360 0 0 0-580.1 284.88z"/>
<path class="Rot Rand2" d="m1620 540-240 664-696-124 456 540-456 540 696-124 240 664 240-664 696 124-456-540 456-540-696 124-240-664z"/>
<path class="Rot Rand2" d="m5580 540-240 664-696-124 456 540-456 540 696-124 240 664 240-664 696 124-456-540 456-540-696 124-240-664z"/>
</g>
<path class="Rand6" d="m360 4140a3240 3240 0 0 0 6480 0v-3870h-6480v3870z"/>
</g>
</svg>

<?xml version="1.0" encoding="iso-8859-1"?>
<!DOCTYPE svg PUBLIC "-//W3C//DTD SVG 1.1//EN" "http://www.w3.org/Graphics/SVG/1.1/DTD/svg11.dtd">
<!-- Auto-generated by fig2svg tool
     Date: Thu Oct 26 13:16:34 2006 -->
<svg xmlns="http://www.w3.org/2000/svg"
     width="438" height="480" viewBox="21 15 438 480">
<metadata>
<rdf:RDF xmlns:rdf="http://www.w3.org/1999/02/22-rdf-syntax-ns#"
         xmlns:dc="http://purl.org/dc/elements/1.1/">
<rdf:Description
 dc:title="Wappen Cama (CH-GR)"
 dc:date="2006-10-26"
 dc:format="image/svg+xml"
 dc:language="de">
<dc:creator rdf:resource="http://de.wikipedia.org/wiki/Benutzer:Bernina" />
</rdf:Description>
</rdf:RDF>
</metadata>
<title>
Wappen Cama (CH-GR)
</title>
<defs>
<clipPath id="clippath">
<path d="M360,4140 A3240,3240 0.0 0 0 6840,4140 L6840,270 L360,270 L360,4140 Z" />
</clipPath>
<style type="text/css">
  <![CDATA[
  .Rand2 { stroke: #202020; stroke-width:30; }
  .Rand6 { stroke: #202020; stroke-width:90; }
  .Rot { fill: #ff0000; }
  .Gold { fill: #ffef00; }
  ]]>
</style>
</defs>
<g stroke="none" stroke-miterlimit="10" stroke-width="10"
   stroke-linecap="butt" stroke-linejoin="miter"
   fill="none" fill-rule="evenodd" transform="scale(0.066667)">
<g clip-path="url(#clippath)">
<path id="feld-1" class="Gold"
      d="M-225,-225 L-225,7425 L7425,7425 L7425,-225 L-225,-225 Z" />
<path id="kreuz-1" class="Rot Rand2"
      d="M630,3870 A360,360 0.0 0 0 1210.10,4154.88 A360,360 0.0 0 0 1170,4320
         A360,360 0.0 0 0 1890,4320 L3150,4320 L3150,5670
         A360,360 0.0 0 0 2790,6030 A360,360 0.0 0 0 3315.12,6349.90
         A360,360 0.0 0 0 3240,6570 A360,360 0.0 0 0 3960,6570
         A360,360 0.0 0 0 3884.88,6349.90 A360,360 0.0 0 0 4410,6030
         A360,360 0.0 0 0 4050,5670 L4050,4320 L5310,4320
         A360,360 0.0 0 0 6030,4320 A360,360 0.0 0 0 5989.90,4154.88
         A360,360 0.0 0 0 6570,3870 A360,360 0.0 0 0 5989.90,3585.12
         A360,360 0.0 0 0 6030,3420 A360,360 0.0 0 0 5310,3420 L4050,3420
         L4050,2070 A360,360 0.0 0 0 4410,1710
         A360,360 0.0 0 0 3884.88,1390.10 A360,360 0.0 0 0 3960,1170
         A360,360 0.0 0 0 3240,1170 A360,360 0.0 0 0 3315.12,1390.10
         A360,360 0.0 0 0 2790,1710 A360,360 0.0 0 0 3150,2070 L3150,3420
         L1890,3420 A360,360 0.0 0 0 1170,3420
         A360,360 0.0 0 0 1210.10,3585.12 A360,360 0.0 0 0 630,3870 Z" />
<path id="stern-1" class="Rot Rand2"
      d="M1620,540 L1380,1204 L684,1080 L1140,1620 L684,2160 L1380,2036
         L1620,2700 L1860,2036 L2556,2160 L2100,1620 L2556,1080 L1860,1204
         L1620,540 Z" />
<path id="stern-2" class="Rot Rand2"
      d="M5580,540 L5340,1204 L4644,1080 L5100,1620 L4644,2160 L5340,2036
         L5580,2700 L5820,2036 L6516,2160 L6060,1620 L6516,1080 L5820,1204
         L5580,540 Z" />
</g>
<path id="clip-boundary" class="Rand6"
      d="M360,4140 A3240,3240 0.0 0 0 6840,4140 L6840,270 L360,270 L360,4140 Z" />
</g>
</svg>
